home/.icons/Gruvbox-Plus-Dark/apps/16/sakura-dungeon.svg

<svg width="16" height="16" version="1.1" xmlns="http://www.w3.org/2000/svg">
  <defs>
    <style type="text/css" id="current-color-scheme">.ColorScheme-Text { color:#ebdbb2; } .ColorScheme-Highlight { color:#458588; }</style>
  </defs>
  <path class="ColorScheme-Text" fill="currentColor" d="m14.98 4.077c-0.099-0.124-0.344 0.046-0.893 0.323-0.744 0.376-1.113 0.704-1.489 1.278-0.442 0.673-0.641 0.756-0.941 0.395-0.277-0.334-0.379-0.356-0.235-0.052 0.066 0.138 0.069 0.311 0.013 0.644-0.061 0.359-0.103 0.484-0.324 0.718-0.155 0.164-0.349 0.32-0.433 0.348-0.189 0.064-0.359-0.142-0.364-0.44l-3e-3 -0.214-0.49 0.054c-0.638 0.07-0.97-0.038-1.405-0.459-0.191-0.185-0.398-0.77-0.442-0.769-0.045 1e-3 -0.218 0.592-0.403 0.783-0.422 0.435-0.751 0.555-1.39 0.506l-0.491-0.038 3e-3 0.215c5e-3 0.298-0.159 0.509-0.35 0.451-0.085-0.025-0.16-0.055-0.32-0.213-0.226-0.228-0.397-0.47-0.469-0.827-0.066-0.331-0.069-0.504-8e-3 -0.644 0.135-0.308 0.034-0.283-0.232 0.06-0.289 0.371-0.49 0.294-0.952-0.365-0.394-0.56-0.774-0.876-1.529-1.226-0.398-0.185-0.628-0.332-0.783-0.332-0.093 1e-3 -0.14 0.032-0.139 0.098 1e-3 0.056 0.144 0.33 0.318 0.61 0.314 0.502 0.556 0.841 0.435 0.843-0.034 0-0.153 0.046-0.426-0.056-0.273-0.101-0.541-0.183-0.597-0.182-0.287 5e-3 -1e-3 0.571 0.594 1.078 0.195 0.166 0.354 0.327 0.355 0.358 1e-3 0.079-0.669 0.02-1.102-0.099-0.52-0.141-0.619-0.024-0.334 0.392 0.324 0.473 0.752 0.738 1.373 0.836 0.928 0.149 0.933 0.287 0.016 0.501-0.5 0.117-0.656 0.19-0.858 0.406-0.136 0.145-0.23 0.281-0.209 0.301 0.102 0.099 1.854 0.253 2.293 0.202 0.614-0.072 0.644 0.053 0.092 0.383-0.216 0.129-0.513 0.385-0.658 0.568l-0.265 0.333 0.47-8e-3c0.586-0.01 1.167-0.141 1.688-0.381 0.221-0.102 0.42-0.157 0.442-0.122 0.023 0.034-0.022 0.216-0.1 0.403-0.077 0.186-0.161 0.504-0.186 0.707-0.043 0.338-0.033 0.368 0.115 0.366 0.267-5e-3 0.627-0.197 1.173-0.624l0.517-0.405 0.173 0.355c0.15 0.307 0.235 0.379 0.633 0.543 0.321 0.132 0.416 0.18 0.433 0.285 0.034-6e-3 0.069-0.01 0.104-0.011l1.457-0.024c0 1e-3 0 1e-3 1e-3 1e-3 0.017-0.1 0.111-0.153 0.42-0.292 0.392-0.177 0.475-0.253 0.616-0.564l0.162-0.361 0.528 0.388c0.559 0.409 0.926 0.589 1.192 0.584 0.149-2e-3 0.157-0.033 0.104-0.369-0.032-0.202-0.125-0.517-0.208-0.701s-0.134-0.363-0.112-0.399c0.021-0.035 0.222 0.013 0.446 0.107 0.529 0.223 1.113 0.334 1.698 0.324l0.471-7e-3 -0.275-0.324c-0.152-0.178-0.456-0.424-0.676-0.546-0.561-0.311-0.535-0.437 0.081-0.386 0.44 0.036 2.186-0.177 2.285-0.279 0.021-0.021-0.078-0.153-0.218-0.294-0.208-0.209-0.367-0.277-0.869-0.377-0.923-0.184-0.923-0.32 0-0.501 0.615-0.121 1.038-0.398 1.348-0.881 0.272-0.426 0.169-0.54-0.346-0.381-0.43 0.133-1.099 0.215-1.1 0.135-1e-3 -0.031 0.155-0.196 0.344-0.369 0.58-0.527 0.848-1.103 0.561-1.098-0.056 1e-3 -0.322 0.092-0.591 0.203-0.27 0.111-0.389 0.069-0.424 0.07-0.121 2e-3 0.109-0.344 0.407-0.857 0.166-0.285 0.301-0.564 0.3-0.619 0-0.023-7e-3 -0.043-0.022-0.06z"/>
</svg>

<svg xmlns="http://www.w3.org/2000/svg" style="isolation:isolate" width="16" height="16" viewBox="0 0 16 16">
 <defs>
  <style id="current-color-scheme" type="text/css">
   .ColorScheme-Text { color:#ebdbb2; } .ColorScheme-Highlight { color:#458588; }
  </style>
  <linearGradient id="arrongin" x1="0%" x2="0%" y1="0%" y2="100%">
   <stop offset="0%" style="stop-color:#d79921; stop-opacity:1"/>
   <stop offset="100%" style="stop-color:#b57614; stop-opacity:1"/>
  </linearGradient>
  <linearGradient id="aurora" x1="0%" x2="0%" y1="0%" y2="100%">
   <stop offset="0%" style="stop-color:#83a598; stop-opacity:1"/>
   <stop offset="100%" style="stop-color:#b16286; stop-opacity:1"/>
  </linearGradient>
  <linearGradient id="fitdance" x1="0%" x2="0%" y1="0%" y2="100%">
   <stop offset="0%" style="stop-color:#8ec07c; stop-opacity:1"/>
   <stop offset="100%" style="stop-color:#458588; stop-opacity:1"/>
  </linearGradient>
  <linearGradient id="oomox" x1="0%" x2="0%" y1="0%" y2="100%">
   <stop offset="0%" style="stop-color:#458588; stop-opacity:1"/>
   <stop offset="100%" style="stop-color:#928374; stop-opacity:1"/>
  </linearGradient>
  <linearGradient id="rainblue" x1="0%" x2="0%" y1="0%" y2="100%">
   <stop offset="0%" style="stop-color:#b8bb26; stop-opacity:1"/>
   <stop offset="100%" style="stop-color:#076678; stop-opacity:1"/>
  </linearGradient>
  <linearGradient id="sunrise" x1="0%" x2="0%" y1="0%" y2="100%">
   <stop offset="0%" style="stop-color: #fe8019; stop-opacity:1"/>
   <stop offset="100%" style="stop-color: #fabd2f; stop-opacity:1"/>
  </linearGradient>
  <linearGradient id="telinkrin" x1="0%" x2="0%" y1="0%" y2="100%">
   <stop offset="0%" style="stop-color: #83a598; stop-opacity:1"/>
   <stop offset="100%" style="stop-color: #83a598; stop-opacity:1"/>
  </linearGradient>
  <linearGradient id="60spsycho" x1="0%" x2="0%" y1="0%" y2="100%">
   <stop offset="0%" style="stop-color: #fb4934; stop-opacity:1"/>
   <stop offset="25%" style="stop-color: #fabd2f; stop-opacity:1"/>
   <stop offset="50%" style="stop-color: #fe8019; stop-opacity:1"/>
   <stop offset="100%" style="stop-color: #689d6a; stop-opacity:1"/>
  </linearGradient>
  <linearGradient id="90ssummer" x1="0%" x2="0%" y1="0%" y2="100%">
   <stop offset="0%" style="stop-color: #b16286; stop-opacity:1"/>
   <stop offset="20%" style="stop-color: #8ec07c; stop-opacity:1"/>
   <stop offset="50%" style="stop-color: #fabd2f; stop-opacity:1"/>
   <stop offset="100%" style="stop-color: #458588; stop-opacity:1"/>
  </linearGradient>
  <linearGradient id="cyberneon" x1="0%" x2="0%" y1="0%" y2="100%">
    <stop offset="0" style="stop-color:#83a598; stop-opacity:1"/>
    <stop offset="1" style="stop-color:#b16286; stop-opacity:1"/>
  </linearGradient>
 </defs>
 <path style="fill:currentColor" class="ColorScheme-Text" d="M 14.983 4.077 C 14.884 3.953 14.639 4.123 14.09 4.4 C 13.346 4.776 12.977 5.104 12.601 5.678 C 12.159 6.351 11.96 6.434 11.66 6.073 C 11.383 5.739 11.281 5.717 11.425 6.021 C 11.491 6.159 11.494 6.332 11.438 6.665 C 11.377 7.024 11.335 7.149 11.114 7.383 C 10.959 7.547 10.765 7.703 10.681 7.731 C 10.492 7.795 10.322 7.589 10.317 7.291 L 10.314 7.077 L 9.824 7.131 C 9.186 7.201 8.854 7.093 8.419 6.672 C 8.228 6.487 8.021 5.902 7.977 5.903 C 7.932 5.904 7.759 6.495 7.574 6.686 C 7.152 7.121 6.823 7.241 6.184 7.192 L 5.693 7.154 L 5.696 7.369 C 5.701 7.667 5.537 7.878 5.346 7.82 C 5.261 7.795 5.186 7.765 5.026 7.607 C 4.8 7.379 4.629 7.137 4.557 6.78 C 4.491 6.449 4.488 6.276 4.549 6.136 C 4.684 5.828 4.583 5.853 4.317 6.196 C 4.028 6.567 3.827 6.49 3.365 5.831 C 2.971 5.271 2.591 4.955 1.836 4.605 C 1.438 4.42 1.208 4.273 1.053 4.273 C 0.96 4.274 0.913 4.305 0.914 4.371 C 0.915 4.427 1.058 4.701 1.232 4.981 C 1.546 5.483 1.788 5.822 1.667 5.824 C 1.633 5.824 1.514 5.87 1.241 5.768 C 0.968 5.667 0.7 5.585 0.644 5.586 C 0.357 5.591 0.643 6.157 1.238 6.664 C 1.433 6.83 1.592 6.991 1.593 7.022 C 1.594 7.101 0.924 7.042 0.491 6.923 C -0.029 6.782 -0.128 6.899 0.157 7.315 C 0.481 7.788 0.909 8.053 1.53 8.151 C 2.458 8.3 2.463 8.438 1.546 8.652 C 1.046 8.769 0.89 8.842 0.688 9.058 C 0.552 9.203 0.458 9.339 0.479 9.359 C 0.581 9.458 2.333 9.612 2.772 9.561 C 3.386 9.489 3.416 9.614 2.864 9.944 C 2.648 10.073 2.351 10.329 2.206 10.512 L 1.941 10.845 L 2.411 10.837 C 2.997 10.827 3.578 10.696 4.099 10.456 C 4.32 10.354 4.519 10.299 4.541 10.334 C 4.564 10.368 4.519 10.55 4.441 10.737 C 4.364 10.923 4.28 11.241 4.255 11.444 C 4.212 11.782 4.222 11.812 4.37 11.81 C 4.637 11.805 4.997 11.613 5.543 11.186 L 6.06 10.781 L 6.233 11.136 C 6.383 11.443 6.468 11.515 6.866 11.679 C 7.187 11.811 7.282 11.859 7.299 11.964 C 7.333 11.958 7.368 11.954 7.403 11.953 L 8.86 11.929 C 8.86 11.93 8.86 11.93 8.861 11.93 C 8.878 11.83 8.972 11.777 9.281 11.638 C 9.673 11.461 9.756 11.385 9.897 11.074 L 10.059 10.713 L 10.587 11.101 C 11.146 11.51 11.513 11.69 11.779 11.685 C 11.928 11.683 11.936 11.652 11.883 11.316 C 11.851 11.114 11.758 10.799 11.675 10.615 C 11.592 10.431 11.541 10.252 11.563 10.216 C 11.584 10.181 11.785 10.229 12.009 10.323 C 12.538 10.546 13.122 10.657 13.707 10.647 L 14.178 10.64 L 13.903 10.316 C 13.751 10.138 13.447 9.892 13.227 9.77 C 12.666 9.459 12.692 9.333 13.308 9.384 C 13.748 9.42 15.494 9.207 15.593 9.105 C 15.614 9.084 15.515 8.952 15.375 8.811 C 15.167 8.602 15.008 8.534 14.506 8.434 C 13.583 8.25 13.583 8.114 14.506 7.933 C 15.121 7.812 15.544 7.535 15.854 7.052 C 16.126 6.626 16.023 6.512 15.508 6.671 C 15.078 6.804 14.409 6.886 14.408 6.806 C 14.407 6.775 14.563 6.61 14.752 6.437 C 15.332 5.91 15.6 5.334 15.313 5.339 C 15.257 5.34 14.991 5.431 14.722 5.542 C 14.452 5.653 14.333 5.611 14.298 5.612 C 14.177 5.614 14.407 5.268 14.705 4.755 C 14.871 4.47 15.006 4.191 15.005 4.136 C 15.005 4.113 14.998 4.093 14.983 4.076 L 14.983 4.077 Z"/>
</svg>
